resources/icons/16px/data-search.svg

<svg width="16" height="16" viewBox="0 0 16 16" fill="none" xmlns="http://www.w3.org/2000/svg">
    <path d="M7 4C10.31 4 13 3.1 13 2C13 0.9 10.31 0 7 0C3.68 0 1 0.9 1 2C1 3.1 3.68 4 7 4Z"
        fill="#5F6B7C" />
    <path
        d="M1 3.52V8C1 8.86719 2.67183 9.61007 5.00128 9.88569C5.06204 7.17706 7.27678 5 10 5C11.1256 5 12.1643 5.37195 13 5.99964V3.52C11.78 4.4 9.56 5 7 5C4.44 5 2.22 4.4 1 3.52Z"
        fill="#5F6B7C" />
    <path
        d="M1 9.52C1.90176 10.1704 3.34985 10.6679 5.07776 10.8832C5.49485 13.2234 7.53995 15 10 15C10.6442 15 11.2613 14.8777 11.8282 14.6549L12.1795 15.0077C11.1371 15.6001 9.2063 16 7 16C3.69 16 1 15.1 1 14V9.52Z"
        fill="#5F6B7C" />
    <path fill-rule="evenodd" clip-rule="evenodd"
        d="M12.0344 13.4447L14.29 15.7101C14.47 15.8901 14.72 16.0001 15 16.0001C15.55 16.0001 16 15.5501 16 15.0001C16 14.7201 15.89 14.4701 15.71 14.2901L13.4446 12.0346C13.7975 11.4385 14 10.7429 14 10C14 8.98555 13.6224 8.05931 13 7.35418C12.2671 6.52376 11.1947 6 10 6C7.80015 6 6.01506 7.77584 6.0001 9.97217C6.00003 9.98144 6 9.99072 6 10C6 10.3367 6.0416 10.6637 6.11994 10.9761C6.5556 12.7134 8.12755 14 10 14C10.7428 14 11.4384 13.7975 12.0344 13.4447ZM8.24072 10.9521C8.5792 11.5762 9.2401 12 10 12C11.0768 12 11.9548 11.1491 11.9983 10.083C11.9994 10.0555 12 10.0278 12 10C12 9.70996 11.9383 9.43434 11.8272 9.18557C11.5153 8.48692 10.8145 8 10 8C8.90471 8 8.01509 8.88041 8.00019 9.97215C8.00007 9.98142 8 9.9907 8 10C8 10.3447 8.08719 10.669 8.24072 10.9521Z"
        fill="#5F6B7C" />
</svg>

<svg xmlns="http://www.w3.org/2000/svg" viewBox="0 0 16 16">
  <path d="M7 4c3.31 0 6-.9 6-2s-2.69-2-6-2C3.68 0 1 .9 1 2s2.68 2 6 2"/>
  <path d="M1 3.52V8c0 .867 1.672 1.61 4.001 1.886A5 5 0 0 1 13 6V3.52C11.78 4.4 9.56 5 7 5s-4.78-.6-6-1.48M1 9.52c.902.65 2.35 1.148 4.078 1.363a5 5 0 0 0 6.75 3.772l.352.353C11.137 15.6 9.206 16 7 16c-3.31 0-6-.9-6-2z"/>
  <path d="m12.034 13.445 2.256 2.265a1.003 1.003 0 0 0 1.42-1.42l-2.265-2.255A4 4 0 0 0 14 10c0-1.014-.378-1.94-1-2.646a4 4 0 1 0-.966 6.09m-3.793-2.493a2 2 0 1 0 3.517-1.903 2 2 0 0 0-3.517 1.903"/>
</svg>
